packages/sources/assets/src/assets/flag-mu.svg

<svg width="28" height="20" viewBox="0 0 28 20" fill="none" xmlns="http://www.w3.org/2000/svg">
<rect width="28" height="20" rx="2" fill="white"/>
<mask id="mask0_503_4846" style="mask-type:alpha" maskUnits="userSpaceOnUse" x="0" y="0" width="28" height="20">
<rect width="28" height="20" rx="2" fill="white"/>
</mask>
<g mask="url(#mask0_503_4846)">
<path fill-rule="evenodd" clip-rule="evenodd" d="M0 20H28V16H0V20Z" fill="#1DBB63"/>
<path fill-rule="evenodd" clip-rule="evenodd" d="M0 10.6667H28V5.33333H0V10.6667Z" fill="#222B82"/>
<path fill-rule="evenodd" clip-rule="evenodd" d="M0 16H28V10.6667H0V16Z" fill="#FFD741"/>
<path fill-rule="evenodd" clip-rule="evenodd" d="M0 5.33333H28V0H0V5.33333Z" fill="#F4374A"/>
</g>
</svg>

<svg width="28" height="20" fill="none" xmlns="http://www.w3.org/2000/svg"><rect width="28" height="20" rx="2" fill="#fff"/><mask id="a" style="mask-type:alpha" maskUnits="userSpaceOnUse" x="0" y="0" width="28" height="20"><rect width="28" height="20" rx="2" fill="#fff"/></mask><g mask="url(#a)" fill-rule="evenodd" clip-rule="evenodd"><path d="M0 20h28v-4H0v4Z" fill="#1DBB63"/><path d="M0 10.667h28V5.333H0v5.334Z" fill="#222B82"/><path d="M0 16h28v-5.333H0V16Z" fill="#FFD741"/><path d="M0 5.333h28V0H0v5.333Z" fill="#F4374A"/></g></svg>
